remix/Map/guide-line.svg

<svg viewBox="0 0 24 24" fill="currentColor" xmlns="http://www.w3.org/2000/svg"><path d="M13 8V16C13 17.6569 11.6569 19 10 19H7.82929C7.41746 20.1652 6.30622 21 5 21C3.34315 21 2 19.6569 2 18C2 16.3431 3.34315 15 5 15C6.30622 15 7.41746 15.8348 7.82929 17H10C10.5523 17 11 16.5523 11 16V8C11 6.34315 12.3431 5 14 5H17V2L22 6L17 10V7H14C13.4477 7 13 7.44772 13 8ZM5 19C5.55228 19 6 18.5523 6 18C6 17.4477 5.55228 17 5 17C4.44772 17 4 17.4477 4 18C4 18.5523 4.44772 19 5 19Z"/></svg>

<svg viewBox="0 0 24 24" xmlns="http://www.w3.org/2000/svg"><path fill="none" d="M0 0h24v24H0Z"/><path d="M13 8v8 0c0 1.65-1.35 3-3 3H7.83v0c-.56 1.56-2.27 2.38-3.83 1.82 -1.57-.56-2.39-2.27-1.83-3.83 .55-1.57 2.26-2.39 3.82-1.83 .85.3 1.52.97 1.82 1.82h2.17v0c.55 0 1-.45 1-1v-8 0c0-1.66 1.34-3 3-3h3v-3l5 4 -5 4v-3h-3v0c-.56 0-1 .44-1 1ZM5 19v0c.55 0 1-.45 1-1 0-.56-.45-1-1-1v0c-.56 0-1 .44-1 1 0 .55.44 1 1 1Z"/></svg>
